images/brand-images/RESURGENT.svg

<?xml version="1.0" encoding="UTF-8" standalone="no"?>
<svg width="1440px" height="1024px" viewBox="0 0 1440 1024" version="1.1" xmlns="http://www.w3.org/2000/svg" xmlns:xlink="http://www.w3.org/1999/xlink" xmlns:sketch="http://www.bohemiancoding.com/sketch/ns">
    <!-- Generator: Sketch 3.3.3 (12072) - http://www.bohemiancoding.com/sketch -->
    <title>Rectangle 39</title>
    <desc>Created with Sketch.</desc>
    <defs></defs>
    <g id="V2" stroke="none" stroke-width="1" fill="none" fill-rule="evenodd" sketch:type="MSPage">
        <g id="Desktop-HD" sketch:type="MSArtboardGroup" fill="#FFFFFF">
            <path d="M0,0 L1440,0 L1440,1024 L0,1024 L0,0 Z M413.577637,216.804688 L489.432129,321.223633 L444.205078,321.223633 L374.222168,220.930664 L367.557129,220.930664 L367.557129,321.223633 L330.582031,321.223633 L330.582031,76.2041016 L373.904785,76.2041016 C406.277994,76.2041016 429.658294,82.2872113 444.046387,94.4536133 C459.915607,107.995348 467.850098,125.874401 467.850098,148.091309 C467.850098,165.441656 462.877817,180.358499 452.933105,192.842285 C442.988394,205.326072 429.870036,213.313459 413.577637,216.804688 Z M367.557129,188.716309 L379.300293,188.716309 C414.318372,188.716309 431.827148,175.333467 431.827148,148.567383 C431.827148,123.494015 414.794441,110.95752 380.728516,110.95752 L367.557129,110.95752 L367.557129,188.716309 Z M774.780029,110.798828 L676.550049,110.798828 L676.550049,169.67334 L771.923584,169.67334 L771.923584,204.426758 L676.550049,204.426758 L676.550049,286.311523 L774.780029,286.311523 L774.780029,321.064941 L639.574951,321.064941 L639.574951,76.0454102 L774.780029,76.0454102 L774.780029,110.798828 Z M1075.93726,108.259766 L1045.94458,126.033203 C1040.33746,116.300082 1034.9949,109.952489 1029.91675,106.990234 C1024.62701,103.604801 1017.80335,101.912109 1009.44556,101.912109 C999.183461,101.912109 990.667107,104.821423 983.89624,110.640137 C977.125373,116.353056 973.73999,123.546994 973.73999,132.222168 C973.73999,144.17698 982.62662,153.804163 1000.40015,161.104004 L1024.83862,171.101562 C1044.72805,179.141967 1059.27461,188.954288 1068.47876,200.538818 C1077.68291,212.123349 1082.28491,226.326088 1082.28491,243.147461 C1082.28491,265.681753 1074.77359,284.301359 1059.75073,299.006836 C1044.62208,313.818108 1025.84378,321.223633 1003.41528,321.223633 C982.150528,321.223633 964.588855,314.928937 950.729736,302.339355 C937.082207,289.749774 928.565854,272.029411 925.18042,249.177734 L962.631592,240.925781 C964.324309,255.313874 967.286519,265.258436 971.518311,270.759766 C979.135536,281.339246 990.243823,286.628906 1004.84351,286.628906 C1016.37514,286.628906 1025.94942,282.767454 1033.56665,275.044434 C1041.18388,267.321413 1044.99243,257.535541 1044.99243,245.686523 C1044.99243,240.925757 1044.33122,236.561787 1043.00879,232.594482 C1041.68635,228.627177 1039.62339,224.977312 1036.81982,221.644775 C1034.01626,218.312239 1030.39284,215.191339 1025.94946,212.281982 C1021.50608,209.372625 1016.21642,206.595554 1010.08032,203.950684 L986.435303,194.111816 C952.898351,179.935313 936.130127,159.199844 936.130127,131.904785 C936.130127,113.49649 943.165376,98.1035775 957.236084,85.7255859 C971.306792,73.2417996 988.815569,67 1009.76294,67 C1038.01015,67 1060.06804,80.7531177 1075.93726,108.259766 L1075.93726,108.259766 Z M353.975098,381.522705 L353.975098,529.105713 C353.975098,550.158878 357.413377,565.551791 364.290039,575.284912 C374.552135,589.35562 388.992908,596.390869 407.612793,596.390869 C426.338473,596.390869 440.832143,589.35562 451.094238,575.284912 C457.9709,565.869175 461.40918,550.476262 461.40918,529.105713 L461.40918,381.522705 L498.384277,381.522705 L498.384277,539.261963 C498.384277,565.075894 490.343993,586.34033 474.263184,603.055908 C456.172273,621.675793 433.955698,630.985596 407.612793,630.985596 C381.269888,630.985596 359.10621,621.675793 341.121094,603.055908 C325.040284,586.34033 317,565.075894 317,539.261963 L317,381.522705 L353.975098,381.522705 Z M787.038086,626.542236 L741.811035,626.542236 L671.828125,526.249268 L665.163086,526.249268 L665.163086,626.542236 L628.187988,626.542236 L628.187988,381.522705 L671.510742,381.522705 C703.883951,381.522705 727.264251,387.605815 741.652344,399.772217 C757.521564,413.313951 765.456055,431.193004 765.456055,453.409912 C765.456055,470.760259 760.483774,485.677102 750.539062,498.160889 C740.594351,510.644675 727.475993,518.632063 711.183594,522.123291 L787.038086,626.542236 Z M668.163086,494.034912 L679.90625,494.034912 C714.924329,494.034912 732.433105,480.652071 732.433105,453.885986 C732.433105,428.812619 715.400398,416.276123 681.334473,416.276123 L668.163086,416.276123 L668.163086,494.034912 Z M1022.22021,503.715088 L1123.46533,503.715088 L1123.46533,511.80835 C1123.46533,530.216645 1121.29657,546.5088 1116.95898,560.685303 C1112.72719,573.803858 1105.58615,586.075871 1095.53564,597.501709 C1072.78976,623.104051 1043.85532,635.905029 1008.73145,635.905029 C974.45393,635.905029 945.096314,623.527223 920.657715,598.77124 C896.219116,573.909462 884,544.075776 884,509.269287 C884,473.722234 896.430703,443.571169 921.29248,418.815186 C946.154258,393.953408 976.411117,381.522705 1012.06396,381.522705 C1031.21282,381.522705 1049.09188,385.437054 1065.70166,393.265869 C1081.57088,401.094684 1097.17538,413.78987 1112.51562,431.351807 L1086.17285,456.58374 C1066.07184,429.817656 1041.58071,416.434814 1012.69873,416.434814 C986.779005,416.434814 965.038499,425.374341 947.476562,443.253662 C929.914626,460.815599 921.133789,482.820587 921.133789,509.269287 C921.133789,536.564345 930.919661,559.045403 950.491699,576.713135 C968.7942,593.111329 988.630427,601.310303 1010.00098,601.310303 C1028.19768,601.310303 1044.54273,595.174296 1059.03662,582.9021 C1073.53051,570.524108 1081.62369,555.713058 1083.31641,538.468506 L1022.22021,538.468506 L1022.22021,503.715088 Z M475.787109,730.95752 L377.557129,730.95752 L377.557129,789.832031 L472.930664,789.832031 L472.930664,824.585449 L377.557129,824.585449 L377.557129,906.470215 L475.787109,906.470215 L475.787109,941.223633 L340.582031,941.223633 L340.582031,696.204102 L475.787109,696.204102 L475.787109,730.95752 Z M600,942.096436 L600,680.414307 L778.686523,867.352783 L778.686523,697.076904 L815.661621,697.076904 L815.661621,957.013428 L636.975098,770.551025 L636.975098,942.096436 L600,942.096436 Z M1022.49097,730.95752 L1022.49097,941.223633 L985.515869,941.223633 L985.515869,730.95752 L929.18042,730.95752 L929.18042,696.204102 L1078.66772,696.204102 L1078.66772,730.95752 L1022.49097,730.95752 Z" id="Rectangle-39" sketch:type="MSShapeGroup"></path>
        </g>
    </g>
</svg>

<svg width="1440" height="1024" viewBox="0 0 1440 1024" xmlns="http://www.w3.org/2000/svg"><title>Rectangle 39</title><desc>Created with Sketch.</desc><path d="M0 0h1440v1024H0V0zm413.578 216.805l75.854 104.42h-45.227L374.222 220.93h-6.665v100.294h-36.975V76.204h43.323c32.373 0 55.753 6.083 70.14 18.25 15.87 13.54 23.805 31.42 23.805 53.637 0 17.352-4.972 32.268-14.917 44.752-9.945 12.484-23.063 20.47-39.355 23.963zm-46.02-28.09H379.3c35.018 0 52.527-13.382 52.527-40.148 0-25.073-17.033-37.61-51.098-37.61h-13.173v77.76zM774.78 110.8h-98.23v58.873h95.374v34.754H676.55v81.885h98.23v34.753H639.575V76.045H774.78V110.8zm301.157-2.54l-29.992 17.773c-5.608-9.733-10.95-16.08-16.028-19.043-5.29-3.385-12.114-5.078-20.47-5.078-10.264 0-18.78 2.91-25.55 8.728-6.772 5.713-10.157 12.907-10.157 21.582 0 11.955 8.887 21.582 26.66 28.882l24.44 9.998c19.888 8.04 34.435 17.852 43.64 29.437 9.203 11.583 13.805 25.786 13.805 42.607 0 22.535-7.51 41.154-22.534 55.86-15.128 14.81-33.906 22.217-56.335 22.217-21.264 0-38.826-6.295-52.685-18.885-13.648-12.59-22.164-30.31-25.55-53.162l37.452-8.252c1.692 14.388 4.655 24.332 8.886 29.834 7.618 10.58 18.726 15.87 33.326 15.87 11.53 0 21.105-3.863 28.723-11.586 7.617-7.723 11.425-17.508 11.425-29.357 0-4.76-.66-9.125-1.983-13.093-1.324-3.967-3.387-7.617-6.19-10.95-2.804-3.332-6.427-6.453-10.87-9.362-4.444-2.91-9.734-5.686-15.87-8.33l-23.645-9.84c-33.537-14.177-50.305-34.912-50.305-62.207 0-18.41 7.035-33.8 21.106-46.18C971.306 73.243 988.816 67 1009.763 67c28.247 0 50.305 13.753 66.174 41.26zM353.975 381.523v147.583c0 21.053 3.438 36.446 10.315 46.18 10.262 14.07 24.703 21.105 43.323 21.105 18.725 0 33.22-7.034 43.48-21.105 6.878-9.416 10.316-24.81 10.316-46.18V381.524h36.974v157.74c0 25.813-8.04 47.077-24.12 63.793-18.092 18.62-40.308 27.93-66.65 27.93-26.344 0-48.508-9.31-66.493-27.93-16.08-16.716-24.12-37.98-24.12-63.794v-157.74h36.975zm433.063 245.02H741.81L671.83 526.248h-6.665V626.54h-36.975v-245.02h43.323c32.374 0 55.754 6.084 70.142 18.25 15.87 13.542 23.804 31.42 23.804 53.638 0 17.35-4.972 32.267-14.917 44.75-9.946 12.485-23.064 20.472-39.356 23.963l75.854 104.42zM668.163 494.034h11.743c35.018 0 52.527-13.383 52.527-40.15 0-25.072-17.033-37.61-51.1-37.61h-13.17v77.76zm354.057 9.68h101.245v8.093c0 18.41-2.168 34.7-6.506 48.877-4.233 13.12-11.374 25.39-21.424 36.817-22.746 25.602-51.68 38.403-86.805 38.403-34.276 0-63.634-12.378-88.072-37.134-24.44-24.86-36.658-54.694-36.658-89.5 0-35.548 12.43-65.7 37.292-90.455 24.862-24.862 55.12-37.292 90.772-37.292 19.15 0 37.028 3.914 53.638 11.743 15.87 7.83 31.473 20.524 46.814 38.086l-26.343 25.232c-20.1-26.766-44.592-40.15-73.474-40.15-25.92 0-47.662 8.94-65.223 26.82-17.562 17.562-26.343 39.567-26.343 66.015 0 27.294 9.786 49.775 29.358 67.443 18.302 16.398 38.138 24.597 59.51 24.597 18.196 0 34.54-6.136 49.035-18.408 14.494-12.378 22.587-27.19 24.28-44.433h-61.097v-34.755zM475.787 730.958h-98.23v58.874h95.374v34.753h-95.373v81.885h98.23v34.754H340.582v-245.02h135.205v34.754zM600 942.096V680.414l178.687 186.94V697.076h36.975v259.936L636.975 770.55v171.546H600zm422.49-211.138v210.266h-36.974V730.958H929.18v-34.754h149.488v34.754h-56.177z" fill="#fff"/></svg>
